Obsidian-SemiLight/actions/16s/draw-path.svg

<svg viewBox="0 0 16 16" xmlns="http://www.w3.org/2000/svg"><path d="m2 2v3h1v5 .111328l-1 1.013672v1.375 1.5c.5669591.009969.9082961.002744 1.5 0 .5300681-.002458 1.34375 0 1.34375 0 .0039177.000164.7889134-.805618.9824219-1h.1738281 5v1h3v-3h-1-1-1v1h-4.1894531c2.4095064-2.4433403 7.0332031-7.15625 7.0332031-7.15625l-2.84375-2.84375-7 7.0976562v-4.0976562h1v-1-1-1zm1 1h1v1h-1zm7.28125 1.15625 1.40625 1.40625-5.4140625 5.560547-1.4082031-1.3964845zm3.6875 4.84375c-.007.00003-.029609.0058594-.037109.0058594h.068359c-.0121-.0020006-.01885-.0038594-.03125-.0058594zm-1.96875 3h1v1h-1z" fill="#4d4d4d"/></svg>

<svg xmlns="http://www.w3.org/2000/svg" viewBox="0 0 16 16">
  <defs id="defs3051">
    <style type="text/css" id="current-color-scheme">
      .ColorScheme-Text {
        color:#4d4d4d;
      }
      </style>
  </defs>
 <path style="fill:currentColor;fill-opacity:1;stroke:none" 
     d="M 2 2 L 2 5 L 3 5 L 3 10 L 3 10.111328 L 2 11.125 L 2 12.5 L 2 14 C 2.5669591 14.009969 2.9082961 14.002744 3.5 14 C 4.0300681 13.997542 4.84375 14 4.84375 14 C 4.8476677 14.000164 5.6326634 13.194382 5.8261719 13 L 6 13 L 11 13 L 11 14 L 14 14 L 14 11 L 13 11 L 12 11 L 11 11 L 11 12 L 6.8105469 12 C 9.2200533 9.5566597 13.84375 4.84375 13.84375 4.84375 L 11 2 L 4 9.0976562 L 4 5 L 5 5 L 5 4 L 5 3 L 5 2 L 2 2 z M 3 3 L 4 3 L 4 4 L 3 4 L 3 3 z M 10.28125 4.15625 L 11.6875 5.5625 L 6.2734375 11.123047 L 4.8652344 9.7265625 L 10.28125 4.15625 z M 13.96875 9 C 13.96175 9.00003 13.939141 9.0058594 13.931641 9.0058594 L 14 9.0058594 C 13.9879 9.0038588 13.98115 9.002 13.96875 9 z M 12 12 L 13 12 L 13 13 L 12 13 L 12 12 z "
     class="ColorScheme-Text"
     />
</svg>
